packages/kaspersky-hexa-ui-icons/src/iconsSVGs/64x42/FlagIq.svg

<svg width="64" height="42" viewBox="0 0 64 42" fill="none" xmlns="http://www.w3.org/2000/svg">
<g clip-path="url(#clip0_37941_2266)">
<rect width="64" height="42" rx="5" fill="white"/>
<rect x="0.5" y="0.5" width="63" height="41" rx="4.5" stroke="#F5F5F5"/>
<path fill-rule="evenodd" clip-rule="evenodd" d="M0 14H64V0H0V14Z" fill="#DF1E35"/>
<path fill-rule="evenodd" clip-rule="evenodd" d="M0 42H64V28H0V42Z" fill="#262626"/>
<path fill-rule="evenodd" clip-rule="evenodd" d="M41.7999 17.9326C41.7999 17.4122 42.3475 17.0738 42.813 17.3065L44.213 18.0065C44.4501 18.1251 44.5999 18.3675 44.5999 18.6326V24.5C44.5999 24.8866 44.2865 25.2 43.8999 25.2H42.4999C42.1133 25.2 41.7999 24.8866 41.7999 24.5V17.9326Z" fill="#0F7A40"/>
<path fill-rule="evenodd" clip-rule="evenodd" d="M24.9999 17.9326C24.9999 17.4122 25.5475 17.0738 26.0129 17.3065L27.4129 18.0065C27.6501 18.1251 27.7999 18.3675 27.7999 18.6326V24.5C27.7999 24.8866 27.4865 25.2 27.0999 25.2H25.6999C25.3133 25.2 24.9999 24.8866 24.9999 24.5V17.9326Z" fill="#0F7A40"/>
<path fill-rule="evenodd" clip-rule="evenodd" d="M36.2 18.6326C36.2 18.3675 36.3498 18.1251 36.5869 18.0065L37.9869 17.3065C38.4523 17.0738 39 17.4122 39 17.9326V24.5C39 24.8866 38.6866 25.2 38.3 25.2H36.9C36.5134 25.2 36.2 24.8866 36.2 24.5V18.6326Z" fill="#0F7A40"/>
<path fill-rule="evenodd" clip-rule="evenodd" d="M30.6001 21.4326C30.6001 21.1675 30.7499 20.9251 30.987 20.8065L32.387 20.1065C32.8525 19.8738 33.4001 20.2122 33.4001 20.7326V22.5254H37.6001V25.2H33.4001H31.3001C30.9135 25.2 30.6001 24.8866 30.6001 24.5V21.4326Z" fill="#0F7A40"/>
<path fill-rule="evenodd" clip-rule="evenodd" d="M19.4 21.4326C19.4 21.1675 19.5498 20.9251 19.787 20.8065L21.187 20.1065C21.6524 19.8738 22.2 20.2122 22.2 20.7326V22.5254H26.4V25.2H22.2H20.1C19.7134 25.2 19.4 24.8866 19.4 24.5V21.4326Z" fill="#0F7A40"/>
</g>
<defs>
<clipPath id="clip0_37941_2266">
<rect width="64" height="42" rx="5" fill="white"/>
</clipPath>
</defs>
</svg>

<svg xmlns="http://www.w3.org/2000/svg" width="64" height="42" fill="none" viewBox="0 0 64 42"><g clip-path="url(#a)"><rect width="64" height="42" fill="#fff" rx="5"/><rect width="63" height="41" x="1" y="1" stroke="#f5f5f5" rx="5"/><path fill="#df1e35" fill-rule="evenodd" d="M0 14h64V0H0z" clip-rule="evenodd"/><path fill="#262626" fill-rule="evenodd" d="M0 42h64V28H0z" clip-rule="evenodd"/><path fill="#0f7a40" fill-rule="evenodd" d="M41.8 17.933c0-.52.548-.859 1.013-.626l1.4.7a.7.7 0 0 1 .387.626V24.5a.7.7 0 0 1-.7.7h-1.4a.7.7 0 0 1-.7-.7zm-16.8 0c0-.52.548-.859 1.013-.626l1.4.7a.7.7 0 0 1 .387.626V24.5a.7.7 0 0 1-.7.7h-1.4a.7.7 0 0 1-.7-.7zm11.2.7a.7.7 0 0 1 .387-.626l1.4-.7c.465-.233 1.013.106 1.013.626V24.5a.7.7 0 0 1-.7.7h-1.4a.7.7 0 0 1-.7-.7z" clip-rule="evenodd"/><path fill="#0f7a40" fill-rule="evenodd" d="M30.6 21.433a.7.7 0 0 1 .387-.626l1.4-.7c.466-.233 1.013.106 1.013.626v1.793h4.2V25.2h-6.3a.7.7 0 0 1-.7-.7zm-11.2 0a.7.7 0 0 1 .387-.626l1.4-.7c.465-.233 1.013.106 1.013.626v1.793h4.2V25.2h-6.3a.7.7 0 0 1-.7-.7z" clip-rule="evenodd"/></g><defs><clipPath id="a"><rect width="64" height="42" fill="#fff" rx="5"/></clipPath></defs></svg>
